X:15
T:Mary Erskine
C:Roy Goldring
%
P:Shuter's Hornpipe
C:Traditional
S:Kohler's Violin Repository
R:reel
N:Suggested tune for Mary Erskine
B:RSCDS "A Second Book of Graded Scottish Country Dances" (Graded 2) p.31 #15
Z:2011 John Chambers <jc:trillian.mit.edu>
M:C
L:1/8
K:G
d2 |:\
"G"G2G2 GABc | "G"dcBA GABG | "Am"A2A2 A2ed | "Am"cBAG "D7"FAFD |
"G"G2G2 GABc | "Em7"dcBA "D/G"G2g2 | "A/D"fafd "A7"ege^c | "D"d2"G"d2 "D"d2z2 ||
"F#/D"A2A2 "D"A2Bc | "F#/D"dBAG "D7"FAFD | "G"d2d2 "D"d2ef | "Em"gedc "D/G7"BdBG |
"C"e2c2 c2ge | "B/G"d2B2 "Em"B2g2 | "Am"ecec "D7"BAGF | "G"G2B2 G2z2 :|
